swiss/communes/0211.svg

<?xml version="1.0" encoding="UTF-8" standalone="no"?>
<!-- Created with Inkscape (http://www.inkscape.org/) -->
<svg
   xmlns:svg="http://www.w3.org/2000/svg"
   xmlns="http://www.w3.org/2000/svg"
   xmlns:xlink="http://www.w3.org/1999/xlink"
   version="1.0"
   width="214.63611"
   height="251.41275"
   id="svg2780">
  <defs
     id="defs2782" />
  <g
     transform="translate(-16.716535,-803.33066)"
     id="layer1">
    <path
       d="M 17.716535,804.33066 L 21.582638,966.73896 C 24.344136,1082.7449 223.72503,1082.7449 226.48654,966.73896 L 230.35265,804.33066 L 17.716535,804.33066 z"
       id="path3282"
       style="fill:#ffffff;fill-opacity:1;fill-rule:evenodd;stroke:#000000;stroke-width:2;stroke-linecap:butt;stroke-miterlimit:4;stroke-dashoffset:0;stroke-opacity:1" />
    <g
       transform="translate(-0.5778604,0)"
       id="g3252">
      <path
         d="M 111.49731,87.31706 C 108.99212,67.808096 112.16009,44.528778 121.44449,23.471404 C 121.92409,22.383663 121.8275,21.000573 120.30719,20.046961 C 118.03071,18.619048 114.70757,16.414621 111.43933,17.716534 C 86.452244,27.670196 92.501415,77.383085 92.641947,83.445531 C 81.838875,68.558741 78.440097,40.370396 81.170804,21.351736 C 81.284948,20.55675 79.565402,20.230158 78.801764,20.478932 C 41.418015,32.657615 69.895403,74.535886 80.275087,103.13926 C 62.018694,88.061422 49.172555,64.005791 42.393354,47.41118 C 41.99701,46.440982 39.691578,46.597179 38.902137,47.286494 C 11.897429,70.86614 69.551547,119.17685 76.736968,120.63446 C 63.36278,117.31509 41.164445,104.84277 31.670329,95.789479 C 31.101839,95.247384 29.712626,95.100498 29.238946,95.727136 C 12.200132,118.26802 48.012096,129.2833 69.512632,138.80626 C 49.31173,139.37867 35.950303,137.34734 29.425975,134.8163 C 28.420065,134.42607 26.677433,135.76026 26.433503,136.81128 C 20.771925,161.26754 59.307107,157.59153 79.051137,157.38453 C 56.136442,173.11375 48.572305,171.79386 39.151509,171.84814 C 38.216376,171.85353 36.749084,172.78776 36.657783,173.71844 C 34.515145,195.55957 60.028382,196.517 88.028553,171.72346 C 75.990992,195.28651 64.037046,200.93146 56.48291,206.76032 C 53.917081,208.74014 53.784857,210.86363 54.674959,212.24652 C 65.615639,229.24427 92.911016,202.34512 96.133165,191.29921 C 92.783616,202.39475 91.616005,230.31496 110.32477,230.6387 C 112.09575,230.66955 109.44851,218.10773 112.88084,186.4374 L 82.916413,160.50169 L 111.49731,87.31706 z"
         transform="translate(0,804.33069)"
         id="path3250"
         style="opacity:1;fill:#000000;fill-opacity:1;fill-rule:evenodd;stroke:#ffffff;stroke-width:1px;stroke-linecap:butt;stroke-linejoin:miter;marker:none;marker-start:none;marker-mid:none;marker-end:none;stroke-miterlimit:4;stroke-dasharray:none;stroke-dashoffset:0;stroke-opacity:1;visibility:visible;display:inline;overflow:visible;enable-background:accumulate" />
      <path
         d="M 92.641947,163.1201 C 99.689497,153.91195 98.694208,144.56271 96.382538,135.19036 C 108.74162,140.23638 118.51654,133.18569 119.20383,125.15506 C 119.94832,116.45629 113.27863,102.34191 111.46958,87.086439 C 107.34393,83.121062 101.52662,77.551692 100.99593,89.181102 C 97.301486,83.26261 91.906705,80.681324 91.395084,92.921693 C 84.412431,85.334412 81.511035,91.354818 82.542354,98.78195 C 77.684691,97.739466 73.610404,97.832876 75.310547,106.29921 C 70.001347,106.4482 65.193191,110.0484 70.866142,117.85896 C 63.355891,116.2766 60.082493,120.43997 67.330621,128.08324 C 61.639049,127.44495 57.149254,131.45184 65.709699,137.80877 C 60.544581,138.21128 54.413786,142.87559 65.460326,148.28243 C 58.26808,152.3826 57.479133,158.01416 68.452798,159.00545 C 63.772046,162.25996 60.350888,168.46947 72.81682,167.98287 C 68.288172,172.82886 66.540097,179.48804 76.55741,178.45652 C 75.179681,183.19674 75.765844,188.67446 82.791727,186.31176 C 82.783848,189.93711 82.682146,199.81521 92.766634,191.29921 C 91.874518,201.44996 96.566564,200.38807 101.99342,193.79294 C 105.60081,198.53731 108.50315,197.74945 112.09302,190.92515 C 114.73181,185.90885 111.3449,163.66041 92.641947,163.1201 z"
         transform="translate(0,804.33069)"
         id="path2476"
         style="opacity:1;fill:#000000;fill-opacity:1;fill-rule:evenodd;stroke:#ffffff;stroke-width:1px;stroke-linecap:butt;stroke-linejoin:miter;marker:none;marker-start:none;marker-mid:none;marker-end:none;stroke-miterlimit:4;stroke-dasharray:none;stroke-dashoffset:0;stroke-opacity:1;visibility:visible;display:inline;overflow:visible;enable-background:accumulate" />
    </g>
    <use
       transform="matrix(-1,0,0,1,248.06918,0)"
       id="use3256"
       x="0"
       y="0"
       width="248.03149"
       height="248.03149"
       xlink:href="#g3252" />
  </g>
</svg>

<svg xmlns="http://www.w3.org/2000/svg" xmlns:xlink="http://www.w3.org/1999/xlink" version="1.0" width="214.636" height="251.413"><g transform="translate(-16.717 -803.33)"><path d="m17.717 804.33 3.866 162.409c2.761 116.006 202.142 116.006 204.904 0l3.866-162.408H17.717z" style="fill:#fff;fill-opacity:1;fill-rule:evenodd;stroke:#000;stroke-width:2;stroke-linecap:butt;stroke-miterlimit:4;stroke-dashoffset:0;stroke-opacity:1"/><g id="a"><path d="M111.497 87.317c-2.505-19.509.663-42.788 9.947-63.846.48-1.087.383-2.47-1.137-3.424-2.276-1.428-5.6-3.632-8.868-2.33-24.987 9.953-18.938 59.666-18.797 65.729C81.839 68.559 78.44 40.37 81.17 21.352c.114-.795-1.606-1.122-2.37-.873-37.383 12.179-8.906 54.057 1.474 82.66C62.02 88.061 49.173 64.006 42.393 47.411c-.396-.97-2.701-.814-3.49-.125-27.006 23.58 30.649 71.89 37.834 73.348-13.374-3.319-35.573-15.791-45.067-24.845-.568-.542-1.957-.689-2.431-.062-17.039 22.541 18.773 33.556 40.274 43.08-20.201.572-33.563-1.46-40.087-3.99-1.006-.39-2.749.943-2.992 1.994-5.662 24.457 32.873 20.78 52.617 20.574-22.915 15.729-30.479 14.409-39.9 14.463-.935.006-2.402.94-2.493 1.87-2.143 21.842 23.37 22.799 51.37-1.995-12.037 23.564-23.991 29.208-31.545 35.037-2.566 1.98-2.698 4.104-1.808 5.487 10.94 16.997 38.236-9.902 41.458-20.948-3.35 11.096-4.517 39.016 14.192 39.34 1.77.03-.876-12.531 2.556-44.202l-29.965-25.935 28.581-73.185z" transform="translate(-.578 804.33)" style="opacity:1;fill:#000;fill-opacity:1;fill-rule:evenodd;stroke:#fff;stroke-width:1px;stroke-linecap:butt;stroke-linejoin:miter;marker:none;marker-start:none;marker-mid:none;marker-end:none;stroke-miterlimit:4;stroke-dasharray:none;stroke-dashoffset:0;stroke-opacity:1;visibility:visible;display:inline;overflow:visible;enable-background:accumulate"/><path d="M92.642 163.12c7.047-9.208 6.052-18.557 3.74-27.93 12.36 5.046 22.135-2.004 22.822-10.035.744-8.699-5.925-22.813-7.734-38.069-4.126-3.965-9.943-9.534-10.474 2.095-3.695-5.918-9.09-8.5-9.6 3.74-6.984-7.587-9.885-1.566-8.854 5.86-4.857-1.042-8.932-.948-7.231 7.518-5.31.15-10.118 3.75-4.445 11.56-7.51-1.582-10.784 2.581-3.535 10.224-5.692-.638-10.182 3.369-1.621 9.726-5.165.402-11.296 5.067-.25 10.473-7.192 4.1-7.98 9.732 2.993 10.723-4.681 3.255-8.102 9.464 4.364 8.978-4.529 4.846-6.277 11.505 3.74 10.474-1.377 4.74-.791 10.217 6.235 7.855-.008 3.625-.11 13.503 9.975 4.987-.892 10.151 3.8 9.09 9.226 2.494 3.608 4.744 6.51 3.956 10.1-2.868 2.639-5.016-.748-27.265-19.451-27.805z" transform="translate(-.578 804.33)" style="opacity:1;fill:#000;fill-opacity:1;fill-rule:evenodd;stroke:#fff;stroke-width:1px;stroke-linecap:butt;stroke-linejoin:miter;marker:none;marker-start:none;marker-mid:none;marker-end:none;stroke-miterlimit:4;stroke-dasharray:none;stroke-dashoffset:0;stroke-opacity:1;visibility:visible;display:inline;overflow:visible;enable-background:accumulate"/></g><use transform="matrix(-1 0 0 1 248.07 0)" width="248.031" height="248.031" xlink:href="#a"/></g></svg>
